dist/assets/images/main/advantages5.svg

<svg width="60" height="60" viewBox="0 0 60 60" fill="none" xmlns="http://www.w3.org/2000/svg">
<path fill-rule="evenodd" clip-rule="evenodd" d="M28.7397 2.04078C25.5036 2.54764 22.815 4.52924 21.394 7.45493C20.5219 9.25061 20.4412 9.74548 20.3835 13.6599L20.3329 17.0749H17.6648C14.8345 17.0749 14.5538 17.1186 14.3408 17.5921C14.1698 17.9727 14.1872 18.1143 14.4464 18.4482L14.6734 18.7408H16.6381H18.6027V19.7782C18.6027 21.5148 18.9959 22.3638 20.0458 22.894C21.0535 23.4027 22.1861 23.2436 22.9682 22.4833C23.594 21.875 23.6893 21.5884 23.7515 20.129L23.8082 18.7963H30H36.1918L36.2485 20.129C36.3107 21.5884 36.406 21.875 37.0318 22.4833C37.7976 23.2277 38.9164 23.3949 39.9306 22.9163C40.9737 22.4241 41.3973 21.5179 41.3973 19.7782V18.7408H48.9041H56.411V37.0652V55.3897H30H3.58904V37.0652V18.7408H5.98093C8.3394 18.7408 8.37611 18.7372 8.61107 18.4838C8.9051 18.1666 8.91638 17.7388 8.64 17.3927C8.43255 17.1328 8.40844 17.1301 5.92767 17.0987C3.50378 17.0678 3.40932 17.0749 2.93797 17.3208C2.67025 17.4604 2.3497 17.7157 2.22564 17.8882L2 18.2018V37.0652V55.9286L2.22597 56.2354C2.35025 56.4041 2.58805 56.6451 2.75452 56.771L3.05721 57H30H56.9428L57.2455 56.771C57.4119 56.6451 57.6498 56.4041 57.774 56.2354L58 55.9286V37.0652V18.2018L57.7744 17.8882C57.6503 17.7157 57.3316 17.4623 57.0663 17.3248L56.5837 17.0749H48.1138H39.6438V14.3234C39.6438 10.2705 39.4443 9.0466 38.4828 7.20305C37.2228 4.787 35.0085 2.98388 32.4658 2.30309C31.6065 2.07298 29.4868 1.92383 28.7397 2.04078ZM32.3562 4.01682C34.4516 4.69804 36.1746 6.18965 37.113 8.13482C37.8569 9.67674 37.9154 10.0604 37.9716 13.771L38.0217 17.0749H30H21.9783L22.0299 13.771C22.088 10.0472 22.152 9.62332 22.8807 8.13482C23.9898 5.86914 26.1824 4.20295 28.6583 3.74417C29.5991 3.56981 31.3867 3.70164 32.3562 4.01682ZM11.1859 17.2045C10.9036 17.3457 10.7543 17.7052 10.6656 18.4578C10.4792 20.0399 8.93523 21.5172 7.46816 21.5172C6.52921 21.5172 6.04548 22.2329 6.5474 22.8794C6.72011 23.102 6.90279 23.1772 7.41742 23.2377C8.32581 23.3446 9.25469 23.8178 9.80899 24.4559C10.3234 25.0481 10.7123 25.9778 10.7123 26.6151C10.7123 27.1982 11.0544 27.6254 11.5212 27.6254C12.0885 27.6254 12.2666 27.4141 12.3725 26.6156C12.4905 25.7247 13.0031 24.6457 13.5315 24.1756C14.0767 23.6904 14.9063 23.3272 15.6857 23.2323C16.4247 23.1423 16.7397 22.8989 16.7397 22.418C16.7397 21.8625 16.442 21.6244 15.6172 21.5208C14.7062 21.4063 14.0769 21.1054 13.4638 20.4913C12.8464 19.8728 12.5815 19.3274 12.4084 18.3179C12.3306 17.8638 12.2008 17.4266 12.1198 17.3465C11.9059 17.1346 11.461 17.0669 11.1859 17.2045ZM22.1096 19.872C22.1096 20.8805 22.0837 21.031 21.8713 21.2602C21.5068 21.6534 20.895 21.6147 20.5303 21.1755C20.269 20.8609 20.2466 20.7511 20.2466 19.7873V18.7408H21.1781H22.1096V19.872ZM39.7363 19.8427C39.7026 20.8277 39.6705 20.9749 39.433 21.2309C39.0911 21.5994 38.5054 21.6197 38.144 21.2758C37.9107 21.0536 37.8904 20.9426 37.8904 19.8876V18.7408H38.8322H39.7739L39.7363 19.8427ZM13.0056 22.2946C13.0649 22.2946 12.7592 22.6569 12.3265 23.0998L11.5396 23.9049L10.81 23.1568L10.0804 22.4087L10.8073 21.6547L11.5342 20.9007L12.216 21.5976C12.5909 21.981 12.9462 22.2946 13.0056 22.2946ZM24.5693 27.8099C24.4455 27.8359 22.8797 29.1302 21.0899 30.686C17.9858 33.3841 17.8356 33.5324 17.8356 33.8999C17.8356 34.3256 17.437 33.8053 25.3626 43.7256C27.5817 46.5031 29.5329 48.852 29.6986 48.9452C29.9691 49.0975 30.0309 49.0974 30.3014 48.9446C30.6762 48.7327 42.1285 34.4456 42.2208 34.0748C42.2647 33.8984 42.2162 33.7066 42.0802 33.5195C41.8979 33.2684 38.4377 30.2153 36.3106 28.4285L35.5527 27.792L30.1736 27.7773C27.2151 27.7693 24.6932 27.784 24.5693 27.8099ZM27.9178 29.4844C27.9178 29.5294 27.1417 30.354 26.1931 31.3168L24.4683 33.0672H22.6776H20.8868L22.9962 31.2347L25.1056 29.4023H26.5117C27.285 29.4023 27.9178 29.4392 27.9178 29.4844ZM36.9957 31.207L39.0837 33.0116L37.3131 33.0423L35.5424 33.0729L33.8123 31.3222C32.8607 30.3593 32.0822 29.5334 32.0822 29.4869C32.0822 29.4404 32.7179 29.4023 33.495 29.4023H34.9077L36.9957 31.207ZM31.6438 31.4568L33.23 33.0672H30H26.77L28.3562 31.4568C29.2286 30.5712 29.9683 29.8465 30 29.8465C30.0317 29.8465 30.7714 30.5712 31.6438 31.4568ZM24.2495 35.094C24.5004 35.6465 27.3655 43.4369 27.3308 43.472C27.3001 43.5032 20.5953 35.1514 20.4329 34.8797C20.3616 34.7605 20.6947 34.733 22.2155 34.733H24.0857L24.2495 35.094ZM39.6255 34.8231C39.563 34.9777 32.7072 43.5105 32.6732 43.4762C32.6556 43.4582 33.1321 42.1124 33.7322 40.4855C34.6385 38.0282 34.8054 37.4799 34.7182 37.2475C34.525 36.7327 33.7911 36.555 33.4183 36.9328C33.3093 37.0434 32.5079 39.0666 31.6375 41.429C30.767 43.7914 30.0301 45.7244 30 45.7245C29.9499 45.7245 26.0461 35.2403 25.9646 34.8867C25.9347 34.7571 27.005 34.733 32.7956 34.733C36.5722 34.733 39.6457 34.7736 39.6255 34.8231ZM44.3897 43.2011C44.2627 43.343 44.1361 43.6843 44.0971 43.9903C43.9197 45.3827 42.7152 46.5015 41.3906 46.5044C40.6766 46.5061 40.3535 47.4901 40.9189 47.9407C41.0891 48.0764 41.3703 48.1714 41.6038 48.1721C42.1721 48.1736 43.0541 48.6273 43.463 49.1284C43.8244 49.5713 44.137 50.4205 44.137 50.9595C44.137 51.3137 44.5799 51.7248 44.9615 51.7248C45.416 51.7248 45.6684 51.3897 45.7884 50.6272C45.9267 49.7483 46.0861 49.4292 46.6408 48.9214C47.2239 48.3875 47.383 48.3116 48.1958 48.1788C48.9774 48.0513 49.1429 47.9325 49.2426 47.4272C49.3436 46.9158 48.9628 46.5637 48.1979 46.4609C47.1477 46.3197 46.434 45.7909 46.0089 44.8392C45.8861 44.5644 45.7845 44.1498 45.7832 43.918C45.7785 43.0973 44.8915 42.6411 44.3897 43.2011ZM45.4118 46.866L45.8557 47.338L45.3901 47.797L44.9246 48.256L44.4699 47.7866L44.0153 47.3171L44.4323 46.8704C44.6617 46.6247 44.8761 46.417 44.9087 46.4088C44.9414 46.4007 45.1678 46.6065 45.4118 46.866Z" fill="#AEA896" stroke="#AEA896" stroke-width="0.5"/>
</svg>

<svg width="60" height="60" fill="none" xmlns="http://www.w3.org/2000/svg"><path fill-rule="evenodd" clip-rule="evenodd" d="M28.74 2.04c-3.236.508-5.925 2.49-7.346 5.415-.872 1.796-.953 2.29-1.01 6.205l-.051 3.415h-2.668c-2.83 0-3.111.044-3.324.517-.171.38-.154.522.105.856l.227.293h3.93v1.037c0 1.737.393 2.586 1.443 3.116 1.008.509 2.14.35 2.922-.41.626-.609.721-.896.784-2.355l.056-1.333h12.384l.056 1.333c.063 1.46.158 1.746.784 2.354.766.745 1.884.912 2.899.433 1.043-.492 1.466-1.398 1.466-3.138v-1.037h15.014V55.39H3.589V18.74h2.392c2.358 0 2.395-.004 2.63-.257.294-.317.305-.745.029-1.091-.207-.26-.232-.263-2.712-.294-2.424-.031-2.519-.024-2.99.222-.268.14-.588.395-.712.567L2 18.202v37.727l.226.306c.124.17.362.41.529.536l.302.229h53.886l.303-.229c.166-.126.404-.367.528-.536L58 55.93V18.202l-.226-.314c-.124-.172-.442-.426-.708-.563l-.482-.25h-16.94v-2.752c0-4.053-.2-5.276-1.161-7.12-1.26-2.416-3.474-4.22-6.017-4.9-.86-.23-2.98-.38-3.726-.262zm3.616 1.977c2.096.681 3.819 2.173 4.757 4.118.744 1.542.802 1.925.859 5.636l.05 3.304H21.978l.052-3.304c.058-3.724.122-4.148.85-5.636 1.11-2.266 3.302-3.932 5.778-4.39.941-.175 2.729-.043 3.698.272zm-21.17 13.188c-.282.14-.432.5-.52 1.253-.187 1.582-1.73 3.06-3.198 3.06-.939 0-1.423.715-.92 1.361.172.223.355.298.87.359.908.107 1.837.58 2.391 1.218.514.592.903 1.522.903 2.16 0 .582.342 1.01.81 1.01.566 0 .745-.212.85-1.01.119-.891.631-1.97 1.16-2.44.545-.486 1.374-.849 2.154-.944.739-.09 1.054-.333 1.054-.814 0-.555-.298-.794-1.123-.897-.91-.115-1.54-.416-2.153-1.03-.618-.618-.883-1.164-1.056-2.173-.077-.454-.207-.891-.288-.972-.214-.211-.659-.28-.934-.142zm10.924 2.667c0 1.009-.026 1.159-.239 1.388-.364.393-.976.355-1.34-.085-.262-.314-.284-.424-.284-1.388v-1.046h1.863v1.131zm17.626-.03c-.033.986-.066 1.133-.303 1.389a.912.912 0 01-1.289.045c-.233-.222-.254-.333-.254-1.388V18.74h1.884l-.038 1.102zm-26.73 2.453c.059 0-.247.362-.68.805l-.786.805-.73-.748-.73-.748.727-.754.727-.754.682.697c.375.383.73.697.79.697zm11.563 5.515c-.123.026-1.69 1.32-3.48 2.876-3.103 2.698-3.253 2.846-3.253 3.214 0 .426-.399-.095 7.527 9.826 2.219 2.777 4.17 5.126 4.336 5.22.27.151.332.151.602-.001.375-.212 11.828-14.5 11.92-14.87.044-.177-.005-.368-.14-.556-.183-.25-3.643-3.304-5.77-5.09l-.758-.637-5.38-.015c-2.958-.008-5.48.007-5.604.033zm3.349 1.674c0 .045-.776.87-1.725 1.833l-1.725 1.75h-3.581l2.11-1.832 2.109-1.833h1.406c.773 0 1.406.037 1.406.082zm9.078 1.723l2.088 1.805-1.77.03-1.772.03-1.73-1.75c-.951-.963-1.73-1.789-1.73-1.835 0-.047.636-.085 1.413-.085h1.413l2.088 1.805zm-5.352.25l1.586 1.61h-6.46l1.586-1.61c.873-.886 1.612-1.61 1.644-1.61.032 0 .771.724 1.644 1.61zm-7.394 3.637c.25.553 3.116 8.343 3.08 8.378-.03.031-6.735-8.32-6.897-8.592-.071-.12.262-.147 1.782-.147h1.87l.165.361zm15.376-.27c-.063.154-6.919 8.687-6.953 8.652-.017-.018.46-1.364 1.06-2.99.906-2.458 1.072-3.006.985-3.238-.193-.515-.927-.693-1.3-.315-.109.11-.91 2.134-1.78 4.496-.871 2.362-1.608 4.295-1.638 4.295-.05 0-3.954-10.484-4.035-10.837-.03-.13 1.04-.154 6.83-.154 3.777 0 6.85.04 6.83.09zM44.39 43.2c-.127.142-.254.483-.293.79-.177 1.392-1.382 2.51-2.706 2.513-.714.002-1.038.986-.472 1.437.17.135.451.23.685.231.568.002 1.45.455 1.859.956.361.443.674 1.292.674 1.831 0 .355.443.766.825.766.454 0 .706-.335.826-1.098.139-.879.298-1.198.853-1.706.583-.533.742-.61 1.555-.742.781-.128.947-.247 1.047-.752.1-.511-.28-.863-1.045-.966-1.05-.141-1.764-.67-2.19-1.622-.122-.275-.224-.69-.225-.921-.005-.82-.892-1.277-1.393-.717zm1.022 3.665l.444.472-.466.459-.465.459-.455-.47-.455-.469.417-.447c.23-.245.444-.453.477-.461.032-.008.259.197.503.457z" fill="#AEA896" stroke="#AEA896" stroke-width=".5"/></svg>
